static/dist/images/icons/mic.svg

<svg xmlns="http://www.w3.org/2000/svg" viewBox="0 0 20 20"><path d="M16.399 7.643V10.4c0 2.236-1.643 4.629-5.399 4.959V18h2.6c.22 0 .4.18.4.4v1.2c0 .221-.181.4-.4.4H6.4c-.22 0-.4-.18-.4-.4v-1.2c0-.22.18-.4.399-.4H9v-2.641c-3.758-.33-5.4-2.723-5.4-4.959V7.643a.4.4 0 0 1 .4-.4h.6c.22 0 .4.18.4.4V10.4c0 1.336 1.053 3.6 5 3.6 3.946 0 5-2.264 5-3.6V7.643a.4.4 0 0 1 .399-.4H16a.399.399 0 0 1 .399.4zM10 12c2.346 0 3-.965 3-1.6V7.242H7V10.4c0 .635.652 1.6 3 1.6zm3-10.4c0-.637-.654-1.6-3-1.6-2.348 0-3 .963-3 1.6v4.242h6V1.6z"/></svg>

<?xml version="1.0" encoding="utf-8"?>
<!-- Generator: Adobe Illustrator 18.1.0, SVG Export Plug-In . SVG Version: 6.00 Build 0)  -->
<!DOCTYPE svg PUBLIC "-//W3C//DTD SVG 1.1//EN" "http://www.w3.org/Graphics/SVG/1.1/DTD/svg11.dtd">
<svg version="1.1" id="Mic" xmlns="http://www.w3.org/2000/svg" xmlns:xlink="http://www.w3.org/1999/xlink" x="0px" y="0px"
	 viewBox="0 0 20 20" enable-background="new 0 0 20 20" xml:space="preserve">
<path d="M16.399,7.643V10.4c0,2.236-1.643,4.629-5.399,4.959V18h2.6c0.22,0,0.4,0.18,0.4,0.4V19.6c0,0.221-0.181,0.4-0.4,0.4h-7.2
	C6.18,20,6,19.82,6,19.6V18.4C6,18.18,6.18,18,6.399,18H9v-2.641c-3.758-0.33-5.4-2.723-5.4-4.959V7.643c0-0.221,0.18-0.4,0.4-0.4
	h0.6c0.22,0,0.4,0.18,0.4,0.4V10.4c0,1.336,1.053,3.6,5,3.6c3.946,0,5-2.264,5-3.6V7.643c0-0.221,0.18-0.4,0.399-0.4H16
	C16.22,7.242,16.399,7.422,16.399,7.643z M10,12c2.346,0,3-0.965,3-1.6V7.242H7V10.4C7,11.035,7.652,12,10,12z M13,1.6
	C13,0.963,12.346,0,10,0C7.652,0,7,0.963,7,1.6v4.242h6V1.6z"/>
</svg>
